X:1
T:Robert The Bruce
R: Hornpipe*
L:1/8
M:4/4
K:D
A, |: D>E     FD EA,   D2 | d>c B/A/G/F/ FEEA/F/           | D>E FD G/F/G/A/ B^G/B/ |1 A/B/c/d/ e/f/g/e/ fd dA, :|2 A/B/c/d/ e/f/g/e/ fd da ||
   |: d'fdd'b d  [G,G] b  | e'  b        e    ^g a A AF | D>E FD G/F/G/A/ B^G/B/ |1 A/B/c/d/ e/f/g/e/ fd da  :|2 A/B/c/d/ e/f/g/e/ fd d2  |]


